!!!OTL: 93d. Der treue Husar.
!!!ARE: Europa, Mitteleuropa, Deutschland, Kreis Hofgeismar
!!!SCT: E0093D
!!!TXL: @@DE
!!!YEM: Copyright 1995, estate of Helmut Schaffrath.
**kern	**text
*ICvox	*
*M3/4	*
*k[f#]	*
*G:	*
!LO:TX:a:t=Mäßig.	!
!LO:TX:a:t=Kreis Hofgeismar.	!
{8d	Es
=1	=1
8.g	war
16g	ein-
4.g	-mal
8a	ein
=2	=2
8b	braver
8b	Hu-
4.b}	-ſar,
{8b	der
=3	=3
8a	liebt
8ee	ſein
4.dd	Schatʒ
8a	ein
=4	=4
8a	gan-
8cc	-ʒes
4b	Jahr,
8r}	.
{8g	ein
=5	=5
8g	gan-
8ee	-ʒes
(4ee	Jahr
8dd)	.
8cc	und
=6	=6
8b	noch
16ddL	viel
16eeJ	.
4.dd}	mehr,
{8b	die
=7	=7
8a	Lie-
8ee	-be
4.dd	nahm
8a	kein
=8	=8
8cc	En-
8dd	-de
4b	mehr.
8r}	.
{8g	ein
=9	=9
8g	gan-
8ee	-ʒes
(4ee	Jahr
8dd)	.
8cc	und
=10	=10
8b	noch
16ddL	viel
16eeJ	.
4.dd}	mehr,
{8b	die
=11	=11
8a	Lie-
8ee	-be
4.dd	nahm
8a	kein
=12	=12
8cc	En-
8dd	-de
4b	mehr.
8r}	.
==	==
!!!AGN: erzaehlendes Volks - Lied, Sage, Liebe, Leid, Tod, Ballade ?
!!!ONB: ESAC (Essen Associative Code) Database: ERK1
!!!AMT: simple triple
!!!AIN: vox
!!!EED: Helmut Schaffrath
!!!EEV: 1.0
!!!GTL: Liebesgeschichten mit tragischem Schluss
!!!URL-scan: https://rosdok.uni-rostock.de/mcrviewer/recordIdentifier/rosdok_ppn745146120/iview2/phys_0395.iview2?x=-422.27491384562836&y=753.2374265259132&scale=0.554360769283424&rotation=0&layout=singlePageLayout
!!!ENC: Anna Maria Matuszewska
!!!EEV: 2024/11/28
*-	*-
